X:1
T:James Bird
M:3/2
L:1/4
K:C
 E F| A A3 G E| G G3 G E| D3 C C C| A,2- A,2 C3/2 D/2| C3 G, A, G,|\
 C3/2- D/2 E2 c A| G3 E E D| C3 z||
